dist/assets/images/myProfile/doc.svg

<svg width="16" height="16" viewBox="0 0 16 16" fill="none" xmlns="http://www.w3.org/2000/svg">
<g id="ic24-file">
<path id="Icon" fill-rule="evenodd" clip-rule="evenodd" d="M9.33317 1.33325C9.50998 1.33325 9.67955 1.40349 9.80457 1.52851L13.1379 4.86185C13.2629 4.98687 13.3332 5.15644 13.3332 5.33325V12.6666C13.3332 13.7712 12.4377 14.6666 11.3332 14.6666H4.6665C3.56193 14.6666 2.6665 13.7712 2.6665 12.6666V3.33325C2.6665 2.22868 3.56193 1.33325 4.6665 1.33325H9.33317ZM7.99917 2.66659H4.6665C4.29831 2.66659 3.99984 2.96506 3.99984 3.33325V12.6666C3.99984 13.0348 4.29831 13.3333 4.6665 13.3333H11.3332C11.7014 13.3333 11.9998 13.0348 11.9998 12.6666V6.66658H8.6665C8.32461 6.66658 8.04283 6.40922 8.00432 6.07767L7.99984 5.99992L7.99917 2.66659ZM11.7238 5.33323L9.3325 2.94256L9.33316 5.33323H11.7238Z" fill="#2E1AAD"/>
</g>
</svg>

<svg width="16" height="16" fill="none" xmlns="http://www.w3.org/2000/svg"><path fill-rule="evenodd" clip-rule="evenodd" d="M9.333 1.333c.177 0 .347.07.472.196l3.333 3.333a.667.667 0 01.195.471v7.334a2 2 0 01-2 2H4.666a2 2 0 01-2-2V3.333a2 2 0 012-2h4.667zM8 2.667H4.667A.667.667 0 004 3.333v9.334c0 .368.298.666.667.666h6.666a.667.667 0 00.667-.666v-6H8.666a.667.667 0 01-.662-.59L8 6V2.667zm3.725 2.666l-2.392-2.39.001 2.39h2.39z" fill="#2E1AAD"/></svg>
